X: 1
T: Padraig O'Keeffe's
M: 2/4
L: 1/8
R: polka
K: Gmaj
|: Bd cA | D2 B2 | D2 A2 | D2 B>A |
 Bd cA | D2 B>A | Bd cA |1 AG G>A:|2 AG GB/d/ ||
|: e2 e2 | d3 e | f2 fd | g2 gf |
e2 e>f | ed dc | B/c/d ef | gd ef |
g2 d>c | BG GA/G/ | FA AB/A/ | GA B/c/d |
g2 d>c | B2 BA | B/c/d cA |1 GA Bd :|2 G4 |
